Icons/com_linkedin_android.svg

<svg viewBox="0 0 48 48" xmlns:xlink="http://www.w3.org/1999/xlink">
 <defs>
  <linearGradient id="0">
   <stop stop-opacity="0"/>
   <stop offset="1"/>
  </linearGradient>
  <linearGradient xlink:href="#0" id="1" gradientUnits="userSpaceOnUse" gradientTransform="translate(4e-7,-48)" y1="47" x2="0" y2="1"/>
  <clipPath id="2">
   <g transform="translate(0,-1004.3622)">
    <rect rx="4" y="1005.36" x="1" height="46" width="46" fill="#1890d0"/>
   </g>
  </clipPath>
  <clipPath id="3">
   <g transform="translate(0,-1004.3622)">
    <rect rx="4" y="1005.36" x="1" height="46" width="46" fill="#1890d0"/>
   </g>
  </clipPath>
 </defs>
 <g>
  <g transform="translate(0,-1004.3622)">
   <path d="m 5,1006.3622 c -2.216,0 -4,1.784 -4,4 l 0,37.25 c 0,2.216 1.784,4 4,4 l 38,0 c 2.216,0 4,-1.784 4,-4 l 0,-37.25 c 0,-2.216 -1.784,-4 -4,-4 l -38,0 z m -4,41.5 0,0.5 c 0,2.216 1.784,4 4,4 l 38,0 c 2.216,0 4,-1.784 4,-4 l 0,-0.5 c 0,2.216 -1.784,4 -4,4 l -38,0 c -2.216,0 -4,-1.784 -4,-4 z" opacity="0.02"/>
   <path d="m 1,1047.6122 0,0.25 c 0,2.216 1.784,4 4,4 l 38,0 c 2.216,0 4,-1.784 4,-4 l 0,-0.25 c 0,2.216 -1.784,4 -4,4 l -38,0 c -2.216,0 -4,-1.784 -4,-4 z" opacity="0.05"/>
   <rect width="46" height="46" x="1" y="1005.61" rx="4" opacity="0.1"/>
  </g>
 </g>
 <g>
  <g transform="translate(0,-1004.3622)">
   <rect rx="4" y="1005.36" x="1" height="46" width="46" fill="#1c90d4"/>
  </g>
 </g>
 <g>
  <rect transform="scale(1,-1)" width="46" height="46" x="1" y="-46.998" rx="4" opacity="0.1" fill="url(#1)"/>
 </g>
 <g>
  <g clip-path="url(#2)">
   <g opacity="0.1">
    <g>
     <path d="M 17 34 L 17 18 L 12 18 L 12 34 Z M 17 34 " fill-rule="evenodd"/>
     <path d="M 25 34 L 25 25 C 25 23 26 22 28 22 C 30 22 31 23 31 25 L 31 34 L 36 34 L 36 25 C 36 20.234375 33.386719 18 30 18 C 27.835938 18.066406 26.265625 19.523438 25 21 L 25 18 L 20 18 C 20.066406 19.457031 20 34 20 34 Z M 25 34 " fill-rule="evenodd"/>
     <path d="M 17 14.5 C 17 15.878906 15.878906 17 14.5 17 C 13.121094 17 12 15.878906 12 14.5 C 12 13.121094 13.121094 12 14.5 12 C 15.878906 12 17 13.121094 17 14.5 Z M 17 14.5 "/>
    </g>
   </g>
  </g>
 </g>
 <g>
  <g clip-path="url(#3)">
   <g transform="translate(0,-1)">
    <g>
     <path d="M 17 34 L 17 18 L 12 18 L 12 34 Z M 17 34 " fill="#f9f9f9" fill-rule="evenodd"/>
     <path d="M 25 34 L 25 25 C 25 23 26 22 28 22 C 30 22 31 23 31 25 L 31 34 L 36 34 L 36 25 C 36 20.234375 33.386719 18 30 18 C 27.835938 18.066406 26.265625 19.523438 25 21 L 25 18 L 20 18 C 20.066406 19.457031 20 34 20 34 Z M 25 34 " fill="#f9f9f9" fill-rule="evenodd"/>
     <path d="M 17 14.5 C 17 15.878906 15.878906 17 14.5 17 C 13.121094 17 12 15.878906 12 14.5 C 12 13.121094 13.121094 12 14.5 12 C 15.878906 12 17 13.121094 17 14.5 Z M 17 14.5 " fill="#f9f9f9"/>
    </g>
   </g>
  </g>
 </g>
 <g>
  <g transform="translate(0,-1004.3622)">
   <path d="m 1,1043.3622 0,4 c 0,2.216 1.784,4 4,4 l 38,0 c 2.216,0 4,-1.784 4,-4 l 0,-4 c 0,2.216 -1.784,4 -4,4 l -38,0 c -2.216,0 -4,-1.784 -4,-4 z" opacity="0.1"/>
  </g>
 </g>
</svg>

<svg viewBox="0 0 48 48"><defs><linearGradient id="linearGradient3764" x1="1" x2="47" gradientUnits="userSpaceOnUse" gradientTransform="translate(-48.000001,0.00221467)"><stop stop-color="#1985c3" stop-opacity="1"/><stop offset="1" stop-color="#1c90d4" stop-opacity="1"/></linearGradient><clipPath id="clipPath-248532524"><g transform="translate(0,-1004.3622)"><rect rx="4" y="1005.36" x="1" height="46" width="46" fill="#1890d0"/></g></clipPath><clipPath id="clipPath-261447173"><g transform="translate(0,-1004.3622)"><rect rx="4" y="1005.36" x="1" height="46" width="46" fill="#1890d0"/></g></clipPath></defs><g><path d="m 1 43 l 0 0.25 c 0 2.216 1.784 4 4 4 l 38 0 c 2.216 0 4 -1.784 4 -4 l 0 -0.25 c 0 2.216 -1.784 4 -4 4 l -38 0 c -2.216 0 -4 -1.784 -4 -4 z m 0 0.5 l 0 0.5 c 0 2.216 1.784 4 4 4 l 38 0 c 2.216 0 4 -1.784 4 -4 l 0 -0.5 c 0 2.216 -1.784 4 -4 4 l -38 0 c -2.216 0 -4 -1.784 -4 -4 z" opacity="0.02"/><path d="m 1 43.25 l 0 0.25 c 0 2.216 1.784 4 4 4 l 38 0 c 2.216 0 4 -1.784 4 -4 l 0 -0.25 c 0 2.216 -1.784 4 -4 4 l -38 0 c -2.216 0 -4 -1.784 -4 -4 z" opacity="0.05"/><path d="m 1 43 l 0 0.25 c 0 2.216 1.784 4 4 4 l 38 0 c 2.216 0 4 -1.784 4 -4 l 0 -0.25 c 0 2.216 -1.784 4 -4 4 l -38 0 c -2.216 0 -4 -1.784 -4 -4 z" opacity="0.1"/></g><g><rect width="46" height="46" x="-47" y="1" rx="4" transform="matrix(0,-1,1,0,0,0)" fill="url(#linearGradient3764)" fill-opacity="1"/></g><g><g clip-path="url(#clipPath-248532524)"><g opacity="0.1"><!-- color: #1c90d4 --><g><path d="m 17 34 l 0 -16 l -5 0 l 0 16 m 5 0" fill-rule="evenodd" fill="#000"/><path d="m 25 34 l 0 -9 c 0 -2 1 -3 3 -3 c 2 0 3 1 3 3 l 0 9 l 5 0 l 0 -9 c 0 -4.766 -2.613 -7 -6 -7 c -2.164 0.066 -3.734 1.523 -5 3 l 0 -3 l -5 0 c 0.066 1.457 0 16 0 16 m 5 0" fill-rule="evenodd" fill="#000"/><path d="m 17 14.5 c 0 1.379 -1.121 2.5 -2.5 2.5 c -1.379 0 -2.5 -1.121 -2.5 -2.5 c 0 -1.379 1.121 -2.5 2.5 -2.5 c 1.379 0 2.5 1.121 2.5 2.5 m 0 0" fill="#000"/></g></g></g></g><g><g clip-path="url(#clipPath-261447173)"><g transform="translate(0,-1)"><!-- color: #1c90d4 --><g><path d="m 17 34 l 0 -16 l -5 0 l 0 16 m 5 0" fill="#f9f9f9" fill-rule="evenodd"/><path d="m 25 34 l 0 -9 c 0 -2 1 -3 3 -3 c 2 0 3 1 3 3 l 0 9 l 5 0 l 0 -9 c 0 -4.766 -2.613 -7 -6 -7 c -2.164 0.066 -3.734 1.523 -5 3 l 0 -3 l -5 0 c 0.066 1.457 0 16 0 16 m 5 0" fill="#f9f9f9" fill-rule="evenodd"/><path d="m 17 14.5 c 0 1.379 -1.121 2.5 -2.5 2.5 c -1.379 0 -2.5 -1.121 -2.5 -2.5 c 0 -1.379 1.121 -2.5 2.5 -2.5 c 1.379 0 2.5 1.121 2.5 2.5 m 0 0" fill="#f9f9f9"/></g></g></g></g><g><g transform="translate(0,-1004.3622)"><path d="m 1 1043.36 0 4 c 0 2.216 1.784 4 4 4 l 38 0 c 2.216 0 4 -1.784 4 -4 l 0 -4 c 0 2.216 -1.784 4 -4 4 l -38 0 c -2.216 0 -4 -1.784 -4 -4 z" opacity="0.1"/></g></g></svg>
